modules/material-icons/icons/steam-square.svg

<svg width="1792" height="1792" viewBox="0 0 1792 1792" xmlns="http://www.w3.org/2000/svg"><path d="M1370 647q0-80-57-136.5t-137-56.5-136.5 57-56.5 136q0 80 56.5 136.5t136.5 56.5 137-56.5 57-136.5zm-610 588q0 83-58 140.5t-140 57.5q-56 0-103-29t-72-77q52 20 98 40 60 24 120-1.5t85-86.5q24-60-1.5-120t-86.5-84l-82-33q22-5 42-5 82 0 140 57.5t58 140.5zm904-819v960q0 119-84.5 203.5t-203.5 84.5h-960q-119 0-203.5-84.5t-84.5-203.5v-153l172 69q20 92 93.5 152t168.5 60q104 0 181-70t87-173l345-252q150 0 255.5-105.5t105.5-254.5q0-150-105.5-255.5t-255.5-105.5q-148 0-253 104.5t-107 252.5l-225 322q-9-1-28-1-75 0-137 37l-297-119v-468q0-119 84.5-203.5t203.5-84.5h960q119 0 203.5 84.5t84.5 203.5zm-247 233q0 100-71 170.5t-171 70.5-170.5-70.5-70.5-170.5 70.5-171 170.5-71q101 0 171.5 70.5t70.5 171.5z"/></svg>

<svg width="1792" height="1792" xmlns="http://www.w3.org/2000/svg"><path d="M1370 647q0-80-57-136.5T1176 454t-136.5 57T983 647q0 80 56.5 136.5T1176 840t137-56.5 57-136.5zm-610 588q0 83-58 140.5T562 1433q-56 0-103-29t-72-77q52 20 98 40 60 24 120-1.5t85-86.5q24-60-1.5-120t-86.5-84l-82-33q22-5 42-5 82 0 140 57.5t58 140.5zm904-819v960q0 119-84.5 203.5T1376 1664H416q-119 0-203.5-84.5T128 1376v-153l172 69q20 92 93.5 152t168.5 60q104 0 181-70t87-173l345-252q150 0 255.5-105.5T1536 649q0-150-105.5-255.5T1175 288q-148 0-253 104.5T815 645L590 967q-9-1-28-1-75 0-137 37L128 884V416q0-119 84.5-203.5T416 128h960q119 0 203.5 84.5T1664 416zm-247 233q0 100-71 170.5T1175 890t-170.5-70.5T934 649t70.5-171 170.5-71q101 0 171.5 70.5T1417 649z"/></svg>
